icon/ir/import.svg

<svg stroke-width="1.5" viewBox="0 0 24 24" fill="none" xmlns="http://www.w3.org/2000/svg" height="1em" width="1em">
  <path d="M4 13V19C4 20.1046 4.89543 21 6 21H18C19.1046 21 20 20.1046 20 19V13" stroke="currentColor" stroke-linecap="round" stroke-linejoin="round"/>
  <path d="M12 3L12 15M12 15L8.5 11.5M12 15L15.5 11.5" stroke="currentColor" stroke-linecap="round" stroke-linejoin="round"/>
</svg>

<svg width="24" height="24" stroke-width="1.5" fill="none" xmlns="http://www.w3.org/2000/svg"><path d="M4 13v6a2 2 0 0 0 2 2h12a2 2 0 0 0 2-2v-6M12 3v12m0 0-3.5-3.5M12 15l3.5-3.5" stroke="currentColor" stroke-linecap="round" stroke-linejoin="round"/></svg>
